!!!OTL: The Gang That Sang 'Heart of My Heart'
!!!COM: Ryan, Ben
!!!LAR: Hugo Frey
!! "The Gang That Sang 'Heart of My Heart'" by Ben Ryan
!! from "Barbershop Memories" compiled and arranged by Hugo Frey
!! copyright 1975 by EMI Music Publ. Ltd.; pp. 8-9; alla breve; in A major
**kern	**kern	**kern	**kern
*Ivox	*Ivox	*Ivox	*Ivox
*M2/2	*M2/2	*M2/2	*M2/2
*A:	*A:	*A:	*A:
4E	4E	4E	4E
=1	=1	=1	=1
2AA	2E	2c#	2A
2AA	2E	2e	2c#
=2	=2	=2	=2
2C#	2c#	2G#	2e#
2F#	2c#	2A	2f#
=3	=3	=3	=3
4BB	4A	4c#	4d#
4F#	4A	4B	4d#
8F#	8A	8B	8d#
4.Fn	4.A-	4.B-	4.dn
=4	=4	=4	=4
1F#	1An	1Bn	1d#
=5	=5	=5	=5
4E	4B	4A	4dn
2E	2B	2G#	2d
4E	4A#	4F##	4c#
=6	=6	=6	=6
4E	4B	4G#	4d
2E	2G#	2B	2d
4E	4E	4G#	4B#
=7	=7	=7	=7
{2AA	{1E	[1F#	{2c#
2BB	.	.	2d
=8	=8	=8	=8
2BB#	2.A}	2.F#]	2d#
4C#}	.	.	4e}
4r	4r	4r	4r
=9	=9	=9	=9
4AA	4A	4E	4c#
4AA	4A	4E	4c#
4AA	4A	4E	4c#
4AA	4A	4c#	4e
=10	=10	=10	=10
4C#	4E	4B	4e
2C#	2E	2A	2e
4Cn	4A	4F#	4d#
=11	=11	=11	=11
4BB	4G#	4E	4Dn
4BB	4G#	4E	4d
4E	4A	4F#	4d
4E#	4B	4G#	4c#
=12	=12	=12	=12
1F#	1c#	1A	{2f#
.	.	.	4e#
.	.	.	4en}
=13	=13	=13	=13
4BB	4F#	4B	4d#
4BB	4Fn	4A#	4dn
4BB	4E	4An	4c#
4BB	4F	4G#	4d
=14	=14	=14	=14
4BB	4F#	4F#	4d#
4BB	4B	4G#	4d#
4BB	4B	4A	4d#
4Cn	4Gn	4A#	4e
=15	=15	=15	=15
4BB	4F#	4B	4d#
4BB	4F#	4An	4d#
4BB	4B	4G#	4d#
4BB	4A	4F#	4d#
=16	=16	=16	=16
{4E	{4G#	2.E	2.dn
4F#	4A	.	.
4G#}	4B}	.	.
4r	4r	4E	4r
=17	=17	=17	=17
4E	4G#	4B	4d
4E	4G#	4B	4d
4E	4G#	4B	4d
4E	4G#	4B	4d
=18	=18	=18	=18
4E	4Gn	4A#	4c#
4E	4G	4A#	4c#
8E	8G#	8c#	8e
4.Fn	4.A	4.cn	4.e-
=19	=19	=19	=19
{2.E	{2.G#	{2.B	{2.d
4Fn	4A	4cn	4e-
=20	=20	=20	=20
2E	1G#}	1B}	1d}
2E#}	.	.	.
=21	=21	=21	=21
4F#	4F#	4A	4c#
4F#	4c#	4A	4f#
4F#	4c#	4A	4e#
4F#	4c#	4A	4en
=22	=22	=22	=22
4BB	4c#	4A	4d#
4BB	4A	4F#	4d#
4BB	4B	4G#	4d#
4BB	4A	4A	4d#
=23	=23	=23	=23
1E	1G#	[1B	1dn
=24	=24	=24	=24
{2A	1d	1B]	{2f#
2G#}	.	.	2e}
=25	=25	=25	=25
2AA	2E	2A	2c#
4AA	4E	4G#	4c#
4AA	4E	4A	4c#
=26	=26	=26	=26
2C#	2G#	2E	2e
2Cn	2A	2F#	2d#
=27	=27	=27	=27
4BB	4F#	4A	4dn
4BB	4E	4G#	4d
4BB	4E	4G#	4d
4AA#	4E	4F##	4c#
=28	=28	=28	=28
1BB	1E	1G#	1d
=29	=29	=29	=29
2E	2G#	2B	2d
4E	4F##	4A#	4c#
4E	4G#	4B	4d
=30	=30	=30	=30
2BB	2G#	2E	2d
2E	2G#	2B	2d
=31	=31	=31	=31
4AA	4E	4B	4c#
4AA	4E	4A	4c#
4AA	4E	4A	4c#
4AA	4E	4B	4d
=32	=32	=32	=32
1AA	1E	1c#	1e
=33	=33	=33	=33
4C#	4A#	4F#	4e
2C#	2F#	2A#	2e
4F#	4A#	4c#	4e
=34	=34	=34	=34
4F#	4A#	4e	4gn
2F#	2A#	2d	2f#
4C#	4F#	4A#	4e
=35	=35	=35	=35
4BB	4An	4c#	4d#
4BB	4A	4F#	4d#
8C#	8A	8F#	8c#
4.Dn	4.A	4.F#	4.cn
=36	=36	=36	=36
1D#	1A	1F#	1B
=37	=37	=37	=37
4BB	4G#	4B	4d#
4BB	4Gn	4A#	4d#
4BB	4F#	4An	4d#
4BB	4E#	4G#	4dn
=38	=38	=38	=38
4BB	4A	4F#	4d#
4BB	4G#	4G#	4d#
4.BB	4.F#	4.A	4.d#
8F#	8A	8B	8d#
=39	=39	=39	=39
4E	4B	4e	4g#
4E-	4B-	4e-	4gn
4D	4A	4d	4f#
4C#	4F#	4A#	4c#
=40	=40	=40	=40
4BB	4A	4c#	4d#
4BB	4A	4B	4d#
{4BB	{4F#	2G#	2dn
4E}	4E}	.	.
=41	=41	=41	=41
2AA	2E	2A	2c#
4AA	4E	4G#	4c#
4AA	4E	4A	4c#
=42	=42	=42	=42
2C#	2A	2E	2e
2Cn	2A	2F#	2d#
=43	=43	=43	=43
4BB	4F#	4A	4dn
4BB	4E	4G#	4d
4BB	4E	4G#	4d
4AA#	4E	4F##	4c#
=44	=44	=44	=44
1BB	1E	1G#	1d
=45	=45	=45	=45
2E	2G#	2B	2d
4E	4F##	4A#	4c#
4E	4G#	4B	4d
=46	=46	=46	=46
2BB	2G#	2E	2d
2G#	2B	2d	2f#
=47	=47	=47	=47
{4G#	2B	[1c#	2e#
4C#}	.	.	.
2D#	2B	.	2f#
=48	=48	=48	=48
{2E	[2B	2.c#]	{2f##
4E#}	4B]	.	4g#
4C#	4B	4c#	4e#
=49	=49	=49	=49
4F#	4A#	4c#	4en
4G#	4B	4d	4fn
4A	4cn	4d#	4f#
4A#	4c#	4e	4gn
=50	=50	=50	=50
4F#	4A#	4dn	4f#
2F#	2A#	2c#	2e
4C#	4A#	4F#	4e
=51	=51	=51	=51
4BB	4An	4B	4d#
4BB	4c#	4A	4d#
4BB	4B	4G#	4d#
4BB	4c#	4A	4d#
=52	=52	=52	=52
4BB	4B	4G#	4d#
2.BB	2.A	2.F#	2.d#
=53	=53	=53	=53
4F#	4A	4B	4d#
4E#	4G#	4A#	4c##
4F#	4A	4B	4d#
4BB	4A	4F#	4d#
=54	=54	=54	=54
4En	4B	4An	4dn
4E	4B	4G#	4d
4E	4A	4F#	4d
4E	4G#	4G#	4d
=55	=55	=55	=55
2AA	2E	2A	2c#
8AA	8E	8A	8c#
8AA	8A	8c#	8e
4AA	4A	4c#	4f#
=56	=56	=56	=56
1A;	1c#;	1e;	1a;
==	==	==	==
*-	*-	*-	*-
